src/components/icons/svg/Heart-Outline.svg

<svg width="16" height="16" viewBox="0 0 16 16" fill="none" xmlns="http://www.w3.org/2000/svg">
<g clip-path="url(#clip0_413_276)">
<path d="M7.4 15.5C6.6 14.8 0 9.30005 0 5.10005C0 2.40005 2.2 0.300049 4.8 0.300049C6 0.300049 7.1 0.800049 8 1.50005C8.9 0.700049 10 0.300049 11.2 0.300049C13.9 0.300049 16 2.50005 16 5.10005C16 9.30005 9.4 14.8 8.6 15.4C8.3 15.8 7.7 15.8 7.4 15.5ZM4.8 2.30005C3.3 2.30005 2 3.60005 2 5.10005C2 7.30005 5.5 11.1 8 13.3C10.1 11.4 14 7.50005 14 5.10005C14 3.50005 12.7 2.30005 11.2 2.30005C10.3 2.30005 9.4 2.80005 8.9 3.60005C8.5 4.20005 7.6 4.20005 7.2 3.60005C6.6 2.80005 5.8 2.30005 4.8 2.30005Z" fill="#475569"/>
</g>
<defs>
<clipPath id="clip0_413_276">
<rect width="16" height="16" fill="white"/>
</clipPath>
</defs>
</svg>

<svg xmlns="http://www.w3.org/2000/svg" width="16" height="16" fill="none" viewBox="0 0 16 16"><g clip-path="url(#a)"><path fill="#475569" d="M7.4 15.5C6.6 14.8 0 9.3 0 5.1 0 2.4 2.2.3 4.8.3 6 .3 7.1.8 8 1.5 8.9.7 10 .3 11.2.3 13.9.3 16 2.5 16 5.1c0 4.2-6.6 9.7-7.4 10.3-.3.4-.9.4-1.2.1M4.8 2.3C3.3 2.3 2 3.6 2 5.1c0 2.2 3.5 6 6 8.2 2.1-1.9 6-5.8 6-8.2 0-1.6-1.3-2.8-2.8-2.8-.9 0-1.8.5-2.3 1.3-.4.6-1.3.6-1.7 0-.6-.8-1.4-1.3-2.4-1.3"/></g><defs><clipPath id="a"><path fill="#fff" d="M0 0h16v16H0z"/></clipPath></defs></svg>
